!!!COM:	la Rue, Pierre de
!!!CDT:	~1452///-1518/11/20
!!!OTL:	De l'oeil de la fille du roy
!!!AGN:	Song; Chanson
!!!SCT:	Rue3006
!!!SCA:	Rue3006
!!!voices:	4
**kern	**kern	**kern	**kern
*staff4	*staff3	*staff2	*staff1
*Ivox	*Ivox	*Ivox	*Ivox
*I"Bassus	*I"Tenor	*I"Contra	*I"Discantus
*I'B	*I'T	*I'C	*I'D
*clefF4	*clefGv2	*clefGv2	*clefG2
*k[]	*k[]	*k[]	*k[]
*M2/1	*M2/1	*M2/1	*M2/1
*met(C|)	*met(C|)	*met(C|)	*met(C|)
=1-	=1-	=1-	=1-
0r	0r	1.D	1r
.	.	.	[1d
.	.	[2F/	.
=2	=2	=2	=2
0r	0r	2F/]	2d/]
.	.	4E/	1f
.	.	4D/	.
.	.	2.F/	.
.	.	.	4e/
.	.	4G/	4d/
=3	=3	=3	=3
0r	1r	2A/	2.f/
.	.	2B-i\	.
.	.	.	4g/
.	[1D	2A/	1a
.	.	[2d\	.
=4	=4	=4	=4
0r	2D/]	2d\]	2r
.	1F	4c\	1a
.	.	4B\	.
.	.	1d	.
.	4E/	.	4g/
.	4D/	.	4f/
=5	=5	=5	=5
1r	2.F/	2r	2.a/
.	.	1c	.
.	4G/	.	4b\
[1AA	1A	.	[1cc
.	.	4B\	.
.	.	4A/	.
=6	=6	=6	=6
2AA/]	1r	2.c\	2cc\]
1C	.	.	4b\
.	.	4d\	4a/
.	2r	1e	1cc
4BB/	[2c\	.	.
4AA/	.	.	.
=7	=7	=7	=7
2.C/	2c\]	1e	2r
.	4B\	.	2.g/
4D\	4A/	.	.
1E	2.c\	[1e	.
.	.	.	4a/
.	.	.	2cc\
.	4d\	.	.
=8	=8	=8	=8
0E	2e\	1e]	2b\
.	4d\	.	1a
.	4c\	.	.
.	1B	[1e	.
.	.	.	2g#i/
=9	=9	=9	=9
1AA	0A	2e\]	1a
.	.	1c	.
2r	.	.	1e
2AA/	.	4B\	.
.	.	4A/	.
=10	=10	=10	=10
1E	0r	2.B\	1g
.	.	4A/	.
1E	.	2B\	1g
.	.	2c\	.
=11	=11	=11	=11
2.F\	1r	1A	0f
4E\	.	.	.
1D	1A	1d	.
=12	=12	=12	=12
1C	1c	2r	2.e/
.	.	1G	.
.	.	.	4f/
2r	1c	.	2g/
2C/	.	4F/	[2a/
.	.	4E/	.
=13	=13	=13	=13
2D\	1B	2F/	2a/]
2E\	.	2G/	1g
2C/	[1A	2E/	.
2D\	.	[2F/	2f/
=14	=14	=14	=14
2C/	1A]	2F/]	2e/
2AA/	.	1E	4d/
.	.	.	4c/
1BB	1G#i	.	1d
.	.	2D/	.
=15	=15	=15	=15
1AA	0A	1E	0c
2r	.	1r	.
[2F\	.	.	.
=16	=16	=16	=16
2F\]	2r	0r	0r
4E\	1c	.	.
4D\	.	.	.
2C/	.	.	.
2D\	4B\	.	.
.	4A/	.	.
=17	=17	=17	=17
1E	2G/	0r	0r
.	2A/	.	.
1E	2B\	.	.
.	[2E/	.	.
=18	=18	=18	=18
2C/	2E/]	2r	0r
2AA/	1A	1f	.
1BB	.	.	.
.	2G#i/	4e\	.
.	.	4d\	.
=19	=19	=19	=19
0AA	1A	2.c\	2r
.	.	.	1cc
.	.	4d\	.
.	2r	[1e	.
.	[2c\	.	4b\
.	.	.	4a/
=20	=20	=20	=20
1r	2c\]	1e]	2.g/
.	4B\	.	.
.	4A/	.	4a/
1E	2G/	1e	[1b
.	2A/	.	.
=21	=21	=21	=21
1E	0B	1e	1b]
[1E	.	[1g	1b
=22	=22	=22	=22
2E\]	1B	2g\]	1b
4D\	.	4f\	.
4C/	.	4e\	.
2BB/	[1B	[1d	[1dd
2AA/	.	.	.
=23	=23	=23	=23
1GG	1B]	2d\]	1dd]
.	.	2.g\	.
1GG	1B	.	1dd
.	.	4f\	.
.	.	4d\	.
.	.	4e\	.
=24	=24	=24	=24
1AA	1.A	2f\	1.cc
.	.	2.e\	.
1r	.	.	.
.	.	4c\	.
.	4G/	2d\	4b\
.	4F/	.	4a/
=25	=25	=25	=25
1r	2.E/	2e\	2g/
.	.	1c	2.a/
.	4F/	.	.
1C	1G	.	.
.	.	.	4g/
.	.	2B\	[2g/
=26	=26	=26	=26
1D	1r	1A	2g/]
.	.	.	2f#i/
1E	1G	2e\	1g
.	.	[2e\	.
=27	=27	=27	=27
1F	1A	2e\]	0r
.	.	2d\	.
1E	1B	[1e	.
=28	=28	=28	=28
2AA/	1.c	0e]	1r
1E	.	.	.
.	.	.	2r
2E\	[2B\	.	2g/
=29	=29	=29	=29
2.D\	2B\]	0r	1a
.	1A	.	.
4C/	.	.	.
1BB	.	.	1b
.	2G#i/	.	.
=30	=30	=30	=30
1AA	2A/	0r	1cc
.	1.e	.	.
1C	.	.	2cc\
.	.	.	[2b\
=31	=31	=31	=31
1D	2.d\	0r	2b\]
.	.	.	1a
.	4c\	.	.
1E	1B	.	.
.	.	.	2g#i/
=32	=32	=32	=32
1F	1A	1r	1a
2F\	1r	1c	1r
[2E\	.	.	.
=33	=33	=33	=33
2E\]	0r	1d	0r
1D	.	.	.
.	.	1e	.
2C/	.	.	.
=34	=34	=34	=34
2D\	0r	1.f	0r
1.A	.	.	.
.	.	[2e\	.
=35	=35	=35	=35
2.G\	0r	2e\]	0r
.	.	1d	.
4F\	.	.	.
1E	.	.	.
.	.	2c#i\	.
=36	=36	=36	=36
!	!	!	!LO:TX:Z=43:t=[Signa congruentie are editorial]
0D;	1r;	1d;	0r;
.	1A	2r	.
.	.	2d\	.
=37	=37	=37	=37
0r	1B	2.d\	0r
.	.	4e\	.
.	2B\	2f\	.
.	2B\	[2g\	.
=38	=38	=38	=38
1D	1A	2g\]	0r
.	.	2f\	.
1E	2.G/	[1g	.
.	4A/	.	.
=39	=39	=39	=39
2E\	2B\	1g]	0r
2E\	1c	.	.
1D	.	1f	.
.	2B\	.	.
=40	=40	=40	=40
1C	2.c\	2.e\	0r
.	4B\	4f\	.
2C/	2G/	4g\	.
.	.	4e\	.
[2D\	2B\	[2f\	.
=41	=41	=41	=41
2D\]	2A/	2f\]	1r
4C/	1G	4e\	.
4BB/	.	4d\	.
1AA	.	1c	1a
.	2F#i/	.	.
=42	=42	=42	=42
0GG	0G	0r	1b
.	.	.	2b\
.	.	.	2b\
=43	=43	=43	=43
0r	0r	1d	2a/
.	.	.	2a/
.	.	1e	2.g/
.	.	.	4a/
=44	=44	=44	=44
0r	1r	2e\	2b\
.	.	2e\	1cc
.	1G	1d	.
.	.	.	2b\
=45	=45	=45	=45
0r	2.A/	2.c\	2.cc\
.	4B\	4d\	4b\
.	2c\	2e\	4g/
.	.	.	4a/
.	[2d\	[2f\	2b\
=46	=46	=46	=46
1r	2d\]	4f\]	2a/
.	.	4e\	.
.	4c\	4d\	1g
.	4B\	4c\	.
1D	1A	1d	.
.	.	.	2f#i/
=47	=47	=47	=47
1E	1G	0r	2g/
.	.	.	1e
2C/	[1A	.	.
[2D\	.	.	[2f/
=48	=48	=48	=48
4D\]	1A]	1r	4f/]
4C/	.	.	4e/
2AA/	.	.	1f
1BB-i	1G	1D	.
.	.	.	4e/
.	.	.	4d/
=49	=49	=49	=49
2AA/	1A	1E	0c
1C	.	.	.
.	2r	1E	.
2BB/	[2c\	.	.
=50	=50	=50	=50
2AA/	2c\]	2F/	1r
2GG/	2B\	2G/	.
[1FF	2A/	[1A	2r
.	2G/	.	[2cc\
=51	=51	=51	=51
0FF_	1F	2A/]	2cc\]
.	.	4G/	2b\
.	.	4F/	.
.	1F	1c	2a/
.	.	.	2g/
=52	=52	=52	=52
1FF]	1.A	2r	0f
.	.	1c	.
1FF	.	.	.
.	4G/	4B\	.
.	4F/	4A/	.
=53	=53	=53	=53
2.C/	2E/	2.e\	1g
.	1G	.	.
4D\	.	4d\	.
1E	.	2.c\	2e/
.	2G/	.	[2e/
.	.	4B\	.
=54	=54	=54	=54
1F	2A/	1A	2e/]
.	2A/	.	2d/
2E\	1G	[1B	2e/
[2E\	.	.	[2g/
=55	=55	=55	=55
2E\]	2r	1B]	1g]
2E\	2e\	.	.
2F\	2c\	1r	2a/
2F\	2d\	.	2a/
=56	=56	=56	=56
1E	1e	1r	1g
1E	1B	2r	2r
.	.	[2e\	[2g/
=57	=57	=57	=57
0r	2E/	1e]	2g/]
.	2E/	.	2g/
.	2F/	2c\	2a/
.	2F/	2d\	2a/
=58	=58	=58	=58
2r	1E	1e	1g
1E	.	.	.
.	1r	1B	2r
[2E\	.	.	2g/
=59	=59	=59	=59
2E\]	0r	2r	2g/
2E\	.	2e\	2g/
2F\	.	2c\	1a
2F\	.	2d\	.
=60	=60	=60	=60
1E	2r	1e	2.g/
.	2G/	.	.
.	.	.	4f/
2r	2G/	2B\	4e/
.	.	.	4d/
2E\	2G/	[2e\	[2g/
=61	=61	=61	=61
2C/	2A/	2e\]	4g/]
.	.	.	4e/
2D\	2A/	2d\	1f
2E\	2.G/	2B\	.
2C/	.	2c\	[2e/
.	4E/	.	.
=62	=62	=62	=62
2D\	2F/	4B\	2e/]
.	.	2A/	.
2BB/	2D/	.	1d
.	.	4G/	.
1AA	1E	1A	.
.	.	.	2c#i/
=63	=63	=63	=63
1r	[0Dl	[0Al	[0dl
1D	.	.	.
=64	=64	=64	=64
0Dl	0D]	0A]	0d]
==	==	==	==
*-	*-	*-	*-
!!!RDF**kern: l=long note in original notation
!!!RDF**kern: i=editorial accidental
!!!ENC:	Chris Gage 06-17-2013
!!!END:	2013/08/06/
!!!EED:	Jesse Rodin
!!!EEV:	2013/08/06/
!!!ONB:	Translated from MusicXML and edited on 2013/08/06/ by Craig Sapp
!!muse2ps: C^@{COM}^i2I150v85,85,85,150Q16
